svgs/sharp-solid/diamond-turn-right.svg

<svg xmlns="http://www.w3.org/2000/svg" viewBox="0 0 512 512"><!--! Font Awesome Pro 6.6.0 by @fontawesome - https://fontawesome.com License - https://fontawesome.com/license (Commercial License) Copyright 2024 Fonticons, Inc. --><path d="M256 0L0 256 256 512 512 256 256 0zm48 336l-16 0 0-72-80 0 0 64 0 24-48 0 0-24 0-88 0-24 24 0 104 0 0-72 16 0 96 96-96 96z"/></svg>

<svg xmlns="http://www.w3.org/2000/svg" viewBox="0 0 512 512"><!--! Font Awesome Pro 6.4.2 by @fontawesome - https://fontawesome.com License - https://fontawesome.com/license (Commercial License) Copyright 2023 Fonticons, Inc. --><path d="M256 0L0 256 256 512 512 256 256 0zm48 336H288V264H208v64 24H160V328 240 216h24H288V144h16l96 96-96 96z"/></svg>
